X:1
T:[ID 7-15]
T:[ID 7-15]
T:Bezeichnung standardisiert: Anglaise Angloise
T:Urheber unbekannt Datum in der hier transkribierten schriftlichen Quelle: 1776 - 1791
C:Urheber unbekannt
C:Datum in der hier transkribierten schriftlichen Quelle: 1776 - 1791
L:1/8
M:2/4
K:D
V:1 treble 
V:1
 d>f (3afa | (3geg (3fdf | d>f (3afa | (3geg f2 :: (3fge f>f | (3fge f2 | (3fge ad | (3edc d2 :: %8
 (3dcB (3AGF | (3EFG A>A | (3dcB(3AGF | (3EFG A2 :: a/b/a/g/ fd | g/a/g/f/ ec | f/g/f/e/ dB | %15
 e/f/e/d/ cA | a/b/a/g/ fd | g/a/g/f/ ec | f/g/f/e/ dB | e/f/e/d/ cA | %20
 (3fdf(3GAB"^der letzte theil nur einmal" | (3edc d2 || %22

